X: 1
T: Andy's Saltire
M: 6/8
L: 1/8
R: jig
K: Amaj
Ace |: a2a-aec | BcB BGE | EBE cEd- | d2c BAF |
a2a-aec | BcB BGE | DFA EGB | [1cAG Ace:| [2cAG A2A||
B2B-BGE | cdc c2A | BfB gBa- | a2g fec |
BcB BGE | cdc c2A | B^df agf | g2g-gec |
B2B-BGE | cdc c2A | BfB gBa- | a2g fec |
a2a-aec | BcB BGE | DFA EGB | cAG Ace||
